packages/foundations/assets/icons/functional/images/maps/parking_16.svg

<svg width="16" height="16" viewBox="0 0 16 16" fill="none" xmlns="http://www.w3.org/2000/svg">
<g clip-path="url(#clip0_186_102)">
<path fill-rule="evenodd" clip-rule="evenodd" d="M12.8762 1.49841C13.7739 1.49841 14.5016 2.22613 14.5016 3.12381V12.8762C14.5016 13.7739 13.7739 14.5016 12.8762 14.5016H3.12381C2.22613 14.5016 1.49841 13.7739 1.49841 12.8762V3.12381C1.49841 2.22613 2.22613 1.49841 3.12381 1.49841H12.8762ZM12.8762 3.12381H3.12381V12.8762H12.8762V3.12381ZM8.28996 5.00683C8.99297 5.00683 9.53015 5.16841 9.9015 5.49156C10.2728 5.81472 10.4585 6.28529 10.4585 6.90325C10.4585 7.53823 10.2658 8.02155 9.88024 8.35321C9.52977 8.65472 9.0317 8.81918 8.38604 8.84659C7.90302 8.84882 7.52798 8.82978 7.26091 8.78947L7.26095 10.2877C7.26095 10.6705 6.95065 10.9808 6.56787 10.9808C6.21454 10.9808 5.87479 10.7023 5.87479 10.2877V5.61635C5.87479 5.30777 6.11854 4.98181 6.48431 5.00683C7.08616 5.00505 7.68804 5.00505 8.28996 5.00683ZM8.17941 6.01881H7.26091V7.85742C7.48527 7.8903 7.75459 7.90674 8.06886 7.90674C8.43737 7.90674 8.70242 7.83021 8.864 7.67713C9.02557 7.52406 9.10636 7.27744 9.10636 6.93727C9.10636 6.65542 9.0539 6.39325 8.88951 6.23143C8.7128 6.06869 8.46126 6.01881 8.17941 6.01881Z" fill="#1A1C1F"/>
</g>
<defs>
<clipPath id="clip0_186_102">
<rect width="16" height="16" fill="white"/>
</clipPath>
</defs>
</svg>

<svg xmlns="http://www.w3.org/2000/svg" width="16" height="16" fill="none"><g clip-path="url(#a)"><path fill="#1A1C1F" fill-rule="evenodd" d="M12.876 1.498c.898 0 1.626.728 1.626 1.626v9.752c0 .898-.728 1.626-1.626 1.626H3.124a1.625 1.625 0 0 1-1.626-1.626V3.124c0-.898.728-1.626 1.626-1.626zm0 1.626H3.124v9.752h9.752zM8.29 5.007q1.054 0 1.612.485.556.484.557 1.411 0 .953-.579 1.45-.525.453-1.494.494a8 8 0 0 1-1.125-.058v1.499a.693.693 0 1 1-1.386 0V5.616c0-.308.244-.634.61-.61zm-.11 1.012h-.92v1.838q.338.05.809.05.552 0 .795-.23.242-.23.242-.74c0-.282-.052-.544-.216-.706-.177-.162-.429-.212-.71-.212" clip-rule="evenodd"/></g><defs><clipPath id="a"><path fill="#fff" d="M0 0h16v16H0z"/></clipPath></defs></svg>
